public/illustrations/_feet.svg

<svg width="285" height="175" viewBox="0 0 285 175" fill="none" xmlns="http://www.w3.org/2000/svg">
<path d="M178.418 125.109C174.468 124.586 171.211 124.217 167.969 123.708C165.151 123.354 162.475 122.292 160.111 120.678C157.746 119.064 155.821 116.883 154.603 114.448C151.757 109.28 152.522 101.507 160.394 98.1657C162.688 97.0897 165.109 96.5799 167.658 96.6507C170.206 96.7214 172.599 97.2028 174.977 98.2506C177.215 99.2983 179.31 100.488 181.972 101.833C181.49 98.7037 181.278 95.872 180.499 93.012C179.338 88.7361 180.698 85.2248 183.756 82.0532C180.598 72.3404 177.441 62.6276 174.298 52.7732C171.664 44.632 169.045 36.4908 166.426 28.208C166.029 27.0612 165.774 26.07 165.52 24.9231C165.406 23.6489 165.576 22.5162 166.171 21.3977C166.766 20.2791 167.785 19.4581 168.918 19.0616C170.064 18.6652 171.197 18.6934 172.315 19.1465C173.434 19.5996 174.269 20.3359 174.807 21.327C175.614 22.757 176.153 24.3286 176.676 25.9002C178.914 32.6114 181.009 39.3225 183.105 46.0337C183.359 47.0248 183.77 47.8884 184.166 49.0353C202.049 42.1259 220.03 36.6324 237.771 29.2841C235.52 23.1393 233.254 17.2776 231.145 11.416C230.621 9.98595 230.083 8.55592 229.701 6.98432C229.304 5.69589 229.347 4.27996 229.8 3.01984C230.394 1.75973 231.272 0.797012 232.561 0.258985C233.849 -0.137455 235.123 -0.0950902 236.383 0.499571C237.644 1.09423 238.465 1.97217 239.003 3.2606C240.886 7.40907 242.33 11.5574 243.93 15.7059C248.319 27.146 252.694 38.7279 256.942 50.168C257.338 51.1733 257.749 52.0228 258.145 53.1697C262.974 52.4476 265.451 55.3359 267.193 59.3428C269.854 65.9265 272.531 72.3686 274.909 79.0798C278.223 88.0847 280.969 97.3586 282.994 106.618C283.744 110.314 284.367 113.882 284.551 117.704C284.792 125.081 281.79 131.509 276.849 136.918C273.932 140.103 270.463 142.85 266.584 145.016C259.25 149.222 252.057 153.71 244.468 157.349C237.148 160.987 229.431 163.762 221.857 166.835C217.85 168.435 213.701 170.035 209.553 171.479C202.403 174.268 194.587 175.344 186.956 174.735C183.416 174.65 180.046 173.433 177.13 171.507C174.199 169.596 171.862 166.991 170.234 163.975C167.785 159.954 166.482 155.381 166.454 150.85C166.426 146.177 167.672 141.675 169.909 137.626C171.239 135.247 172.712 133.024 174.185 130.787C175.374 128.833 176.691 127.021 178.163 124.656L178.432 125.095L178.418 125.109ZM269.727 98.6754C268.764 91.851 260.552 69.4095 257.947 66.2238C235.364 74.2942 213.588 84.2194 190.325 91.0014C191.5 94.7109 191.132 98.3922 192.888 101.833L199.897 98.8876C204.909 96.8913 209.779 94.6118 214.777 92.7429C216.066 92.2048 217.482 92.2473 218.742 92.7003C220.002 93.1534 221.106 94.173 221.644 95.3198C222.706 97.8967 221.8 100.559 218.926 102.045C217.354 102.852 215.627 103.518 214.055 104.183L193.157 113.145L193.058 116.827L196.201 115.92C202.912 113.825 209.624 111.73 216.335 109.634C218.331 108.983 220.611 108.615 222.735 108.374C223.867 108.261 225 108.431 225.835 109.167C226.671 109.761 227.35 110.767 227.605 111.899C227.86 112.891 227.832 114.023 227.393 114.873C227.081 115.85 226.359 116.685 225.495 117.237C224.349 117.917 223.202 118.455 222.055 118.851C211.351 122.264 200.505 125.534 189.787 128.946C188.938 129.201 188.216 129.612 187.635 130.306C184.846 134.482 182.042 138.659 179.381 142.85C177.752 145.498 176.96 148.74 177.455 151.869L179.012 151.912C181.717 151.133 184.435 150.354 187.14 149.561C202.119 144.988 216.717 139.254 230.762 132.528C235.208 130.376 239.244 127.502 243.689 125.35C245.558 124.402 247.003 122.887 247.909 120.919C249.098 118.681 250.146 116.303 251.477 114.066C255.908 107.1 260.737 100.842 269.557 99.2276C269.557 99.2276 269.699 99.0859 269.84 98.9585L269.713 98.6754H269.727ZM193.483 78.4711C197.462 78.0038 242.642 61.2966 248.659 58.1959C246.408 52.051 244.298 45.9063 241.622 39.7473L187.31 59.2012C189.405 65.9124 191.515 72.1989 193.624 78.3437L193.483 78.4852V78.4711ZM272.162 108.785C269.897 108.87 267.745 109.804 266.145 111.46C262.959 114.349 260.311 118.115 258.655 122.179C255.625 129.895 249.565 134.412 242.543 137.923C239.385 139.395 236.369 141.024 233.226 142.369C227.35 145.059 221.475 148.018 215.33 150.269C207.755 153.2 200.038 155.692 192.463 158.326C189.037 159.515 185.469 160.704 181.604 161.879C182.708 163.04 183.968 163.777 185.37 164.385C186.771 164.994 188.315 165.306 189.745 165.207C195.125 165.348 200.534 164.343 205.532 162.488C218.246 158 230.848 152.648 242.897 146.715C248.772 143.742 254.662 140.5 260.425 137.102C263.157 135.474 265.748 133.548 268.212 131.353C271.115 128.451 273.196 124.685 273.861 120.734C274.527 116.643 274.074 112.522 272.177 108.799L272.162 108.785ZM178.984 113.797C175.671 110.314 172.33 107.963 168.096 107.284C167.247 107.114 166.397 107.241 165.689 107.51C164.981 107.779 164.259 108.317 163.806 109.025C163.919 109.875 164.33 110.738 164.882 111.46C165.434 112.183 166.27 112.636 167.119 112.791C170.914 114.165 175.006 114.406 178.984 113.797Z" fill="#102185"/>
<path d="M26.7364 57.6995C26.7931 55.5757 26.9769 54.0184 27.1609 52.3335C27.2175 50.2097 27.968 48.2416 29.2847 46.585C30.4599 44.9143 32.0458 43.541 34.0563 42.7339C35.9111 41.9269 38.049 41.5586 40.0313 41.8984C42.0135 42.0967 43.9673 42.9888 45.638 44.3055C51.4714 48.8363 55.0113 54.3156 54.6856 61.9612L54.5864 65.9257C56.781 63.009 58.5366 60.9277 60.1507 58.8464C61.1701 57.4589 62.4869 56.0713 63.7895 54.967C65.0921 53.8626 66.522 53.1971 68.2352 52.9564C70.359 53.013 71.0953 51.753 71.8457 50.2097C75.4279 42.7906 79.0243 35.3713 82.6064 28.108C85.1408 23.0675 87.5337 17.8998 90.0681 12.8593C90.5212 11.7408 91.1158 10.7637 91.8379 9.92839C92.4184 9.09303 93.4235 8.55497 94.4287 8.30011C95.434 8.04526 96.5527 8.07364 97.4022 8.37098C98.2375 8.82405 99.0729 9.4045 99.4835 10.2682C99.8799 11.1319 100.149 12.123 99.9791 13.1141C99.6535 14.7989 99.0444 16.4839 98.294 18.1688C95.9012 23.3508 93.5085 28.3913 90.9599 33.7007C104.382 40.4119 117.677 46.8398 131.836 52.7156C132.431 51.7387 132.884 50.7618 133.323 49.7849C135.602 43.6117 137.74 37.4386 140.02 31.2655C140.487 29.8638 141.082 28.6036 141.676 27.3435C142.271 26.3666 142.993 25.5311 143.998 25.1347C145.003 24.7383 146.136 24.625 147.255 24.9365C148.373 25.248 149.35 25.9843 149.888 26.9896C150.426 27.9948 150.681 29.1274 150.511 30.4017C150.341 31.5343 150.03 32.6529 149.577 33.7714C145.004 46.4009 140.303 59.0304 135.73 71.6598C135.574 72.2262 135.418 72.92 135.107 73.6279C135.376 73.9111 135.8 74.35 136.211 74.5057C137.329 75.1004 138.292 75.9782 138.845 76.9835C139.383 78.1303 139.638 79.263 139.326 80.5373C138.958 84.0628 138.009 87.5883 136.933 90.958C132.841 101.619 128.608 112.281 124.233 122.786C122.265 127.558 120.028 132.174 117.649 136.648C114.832 141.816 111.164 146.545 106.676 150.396C102.485 153.978 97.1897 156.102 91.6395 156.668C84.815 157.631 78.3304 156.328 71.8457 155.04C54.6571 151.486 37.7942 146.247 21.6817 139.324C16.0749 136.917 11.0627 133.533 6.78676 129.172C-1.51022 121.172 -1.69438 111.814 3.50185 102.186C6.63092 96.31 11.8271 91.9209 17.9861 89.6697C18.8357 89.4148 19.5577 89.0042 20.4214 88.5936C20.4214 88.5936 20.4217 88.3104 20.719 88.0414C19.7421 87.5883 18.6233 87.1351 17.6322 86.6821C12.8607 84.8556 8.98125 81.3586 6.68755 76.9128C5.20089 74.3218 4.56396 71.4758 4.77634 68.5025C4.84713 65.5292 6.05067 62.7257 7.66476 60.5028C10.454 56.3261 16.7404 54.4996 21.8092 55.9013C23.3525 56.3685 24.8956 57.119 26.8636 57.7278H26.7223L26.7364 57.6995ZM128.65 82.7885C125.55 82.1372 122.732 81.6418 119.914 81.0046C108.219 78.8667 96.6802 75.7376 85.4523 71.7732C80.6809 69.9467 76.0652 67.5681 72.0441 64.3541C71.3504 63.7736 70.6563 63.3347 69.6794 62.5985C66.6211 66.0673 63.6903 69.8052 61.1842 73.7129C61.7364 74.2934 62.4303 74.8739 63.1241 75.3129C69.1274 78.7251 75.2723 82.1373 81.2756 85.4079C82.3941 86.0026 83.5124 86.5972 84.4893 87.3335C85.1831 87.914 85.7354 88.6361 85.9902 89.4998C86.2451 90.3493 86.2308 91.3403 85.9193 92.1898C85.6078 93.0393 85.1692 93.8748 84.4471 94.4128C83.725 94.9508 82.8754 95.2199 81.8702 95.3331C80.5959 95.3048 79.3217 95.2622 78.0616 94.6675C76.0935 93.903 74.2809 93.0111 72.4686 91.9776C67.3007 89.0184 62.2746 86.0592 57.1067 83.0859C56.4129 82.7886 55.7049 82.4771 54.8695 82.0382L50.353 87.1636C51.5989 88.183 52.5619 89.2024 53.6804 89.9386C58.2678 93.1668 63.0109 96.2676 67.754 99.3541C69.0141 100.09 70.4016 100.982 71.5059 102.002C72.0581 102.441 72.4687 102.88 72.8793 103.588C73.1483 104.154 73.4175 104.876 73.3891 105.584C73.3608 106.292 73.3467 107 73.0493 107.552C72.752 108.246 72.4546 108.812 71.8741 109.223C70.9962 110.044 70.0052 110.455 68.7309 110.554C67.5982 110.525 66.4796 110.214 65.5027 109.478C58.8198 105.06 52.2644 100.642 45.7231 96.0834C44.4771 95.2056 43.3586 94.1862 42.2543 93.1668C38.5447 94.0588 35.2738 94.8375 32.1306 95.6021C28.1379 96.6356 24.1453 97.5277 20.2942 98.7029C17.2925 99.7648 14.7016 101.676 12.9317 104.324C14.1919 104.918 15.1687 105.371 16.0182 105.683C19.7986 107.198 23.7345 108.713 27.5149 110.086C36.0809 113.13 44.647 116.189 53.1989 119.233C59.0889 121.371 64.9932 123.494 71.0247 125.491C74.8193 126.864 78.7692 127.388 82.7478 126.921C86.3016 126.439 89.8555 125.831 93.4093 125.208C98.8038 124.5 104.071 123.778 109.395 125.76C109.961 125.774 110.527 125.93 111.093 125.944C114.902 120.804 127.617 88.8342 128.48 82.477L128.622 82.7603L128.65 82.7885ZM9.85908 114.49C9.83076 115.622 9.80243 116.897 10.1989 117.902C10.5953 119.049 11.2751 120.054 12.1104 120.776C16.2448 125.406 21.3985 128.946 27.2885 131.069C43.2736 137.427 59.556 143.076 76.4898 145.908C81.7143 146.743 86.9249 147.592 92.1919 146.587C95.1794 145.95 97.912 144.605 100.361 142.679C102.669 140.754 104.581 138.248 105.926 135.459C103.83 134.411 101.565 134.071 99.1437 134.581C94.7403 135.175 90.3371 135.77 85.778 136.506C80.6525 137.512 75.2864 137.087 70.2176 135.543C65.7152 134.156 61.2268 132.627 56.7385 130.956C50.8485 128.818 44.9586 126.553 39.0544 124.273C32.598 121.838 26.0001 119.7 19.5437 117.265C17.0235 116.344 14.4889 115.438 11.9687 114.518C11.2608 114.504 10.5528 114.334 9.8449 114.32V114.461L9.85908 114.49ZM79.4349 57.0482C85.24 62.5701 116.715 72.4386 125.097 71.5183C126.158 68.5733 127.234 65.4867 128.452 62.2585L86.4576 42.6489L79.5763 57.204L79.4349 57.0624V57.0482ZM34.3678 80.5515C30.9556 75.511 26.9629 70.8812 22.3896 66.9309C21.8374 66.492 21.1435 66.0531 20.4356 65.7416C16.6552 64.2267 13.9085 66.2796 14.5173 70.2723C14.7722 71.405 15.1685 72.4102 15.8482 73.4155C17.2074 75.426 19.1613 77.0402 21.54 77.8048C24.3434 78.7251 27.1609 79.5037 29.9785 80.1408C31.3943 80.3249 32.9378 80.4948 34.3536 80.5373L34.3678 80.5515ZM42.7496 74.1092C44.1372 69.7484 44.8168 65.0903 44.9301 60.5737C45.0434 56.0571 42.6789 54.4288 40.0313 52.3758C39.7622 52.0927 39.4792 51.937 39.0544 51.9228C38.6296 51.9087 38.3464 51.9086 37.9216 52.036C37.6385 52.1635 37.341 52.4466 37.0578 52.7156C36.9021 52.9988 36.7605 53.4095 36.7464 53.6927C36.4207 55.2359 36.3926 56.6517 36.6333 58.2233C37.4828 63.6319 39.7765 68.5026 42.6082 74.0952H42.7496V74.1092Z" fill="#102185"/>
</svg>

<svg xmlns="http://www.w3.org/2000/svg" width="285" height="175" fill="none" viewBox="0 0 285 175"><path fill="#102185" d="M178.418 125.109c-3.95-.523-7.207-.892-10.449-1.401-2.818-.354-5.494-1.416-7.858-3.03-2.365-1.614-4.29-3.795-5.508-6.23-2.846-5.168-2.081-12.941 5.791-16.282a15.84 15.84 0 0 1 7.264-1.515c2.548.07 4.941.552 7.319 1.6 2.238 1.047 4.333 2.237 6.995 3.582-.482-3.13-.694-5.961-1.473-8.821-1.161-4.276.199-7.787 3.257-10.959-3.158-9.713-6.315-19.425-9.458-29.28a3858 3858 0 0 1-7.872-24.565c-.397-1.147-.652-2.138-.906-3.285-.114-1.274.056-2.407.651-3.525a5 5 0 0 1 2.747-2.336 4.7 4.7 0 0 1 3.397.084c1.119.454 1.954 1.19 2.492 2.181.807 1.43 1.346 3.002 1.869 4.573 2.238 6.711 4.333 13.423 6.429 20.134.254.99.665 1.854 1.061 3.001 17.883-6.91 35.864-12.403 53.605-19.75-2.251-6.146-4.517-12.007-6.626-17.869-.524-1.43-1.062-2.86-1.444-4.432a6.32 6.32 0 0 1 .099-3.964c.594-1.26 1.472-2.223 2.761-2.761 1.288-.396 2.562-.354 3.822.24 1.261.595 2.082 1.473 2.62 2.762 1.883 4.148 3.327 8.296 4.927 12.445a3429 3429 0 0 1 13.012 34.462c.396 1.005.807 1.855 1.203 3.002 4.829-.722 7.306 2.166 9.048 6.173 2.661 6.584 5.338 13.026 7.716 19.737 3.314 9.005 6.06 18.279 8.085 27.538.75 3.696 1.373 7.264 1.557 11.086.241 7.377-2.761 13.805-7.702 19.214a41.1 41.1 0 0 1-10.265 8.098c-7.334 4.206-14.527 8.694-22.116 12.333-7.32 3.638-15.037 6.413-22.611 9.486-4.007 1.6-8.156 3.2-12.304 4.644-7.15 2.789-14.966 3.865-22.597 3.256-3.54-.085-6.91-1.302-9.826-3.228-2.931-1.911-5.268-4.516-6.896-7.532-2.449-4.021-3.752-8.594-3.78-13.125-.028-4.673 1.218-9.175 3.455-13.224 1.33-2.379 2.803-4.602 4.276-6.839 1.189-1.954 2.506-3.766 3.978-6.131l.269.439zm91.309-26.434c-.963-6.824-9.175-29.266-11.78-32.451-22.583 8.07-44.359 17.995-67.622 24.777 1.175 3.71.807 7.391 2.563 10.832l7.009-2.945c5.012-1.997 9.882-4.276 14.88-6.145 1.289-.538 2.705-.496 3.965-.043s2.364 1.473 2.902 2.62c1.062 2.577.156 5.239-2.718 6.725-1.572.807-3.299 1.473-4.871 2.138l-20.898 8.962-.099 3.682 3.143-.907 20.134-6.286c1.996-.651 4.276-1.019 6.4-1.26 1.132-.113 2.265.057 3.1.793.836.594 1.515 1.6 1.77 2.732.255.992.227 2.124-.212 2.974-.312.977-1.034 1.812-1.898 2.364a18.7 18.7 0 0 1-3.44 1.614c-10.704 3.413-21.55 6.683-32.268 10.095-.849.255-1.571.666-2.152 1.36-2.789 4.176-5.593 8.353-8.254 12.544-1.629 2.648-2.421 5.89-1.926 9.019l1.557.043c2.705-.779 5.423-1.558 8.128-2.351 14.979-4.573 29.577-10.307 43.622-17.033 4.446-2.152 8.482-5.026 12.927-7.178 1.869-.948 3.314-2.463 4.22-4.431 1.189-2.238 2.237-4.616 3.568-6.853 4.431-6.966 9.26-13.224 18.08-14.838 0 0 .142-.142.283-.27l-.127-.283zm-76.244-20.204c3.979-.467 49.159-17.174 55.176-20.275-2.251-6.145-4.361-12.29-7.037-18.449L187.31 59.201c2.095 6.711 4.205 12.998 6.314 19.143l-.141.141zm78.679 30.314a8.8 8.8 0 0 0-6.017 2.675c-3.186 2.889-5.834 6.655-7.49 10.719-3.03 7.716-9.09 12.233-16.112 15.744-3.158 1.472-6.174 3.101-9.317 4.446-5.876 2.69-11.751 5.649-17.896 7.9-7.575 2.931-15.292 5.423-22.867 8.057a290 290 0 0 1-10.859 3.553c1.104 1.161 2.364 1.898 3.766 2.506 1.401.609 2.945.921 4.375.822 5.38.141 10.789-.864 15.787-2.719 12.714-4.488 25.316-9.84 37.365-15.773a312 312 0 0 0 17.528-9.613c2.732-1.628 5.323-3.554 7.787-5.749 2.903-2.902 4.984-6.668 5.649-10.619.666-4.091.213-8.212-1.684-11.935zm-93.178 5.012c-3.313-3.483-6.654-5.834-10.888-6.513-.849-.17-1.699-.043-2.407.226a3.97 3.97 0 0 0-1.883 1.515c.113.85.524 1.713 1.076 2.435.552.723 1.388 1.176 2.237 1.331 3.795 1.374 7.887 1.615 11.865 1.006M26.736 57.7c.057-2.124.24-3.682.425-5.367.056-2.123.807-4.091 2.124-5.748 1.175-1.67 2.76-3.044 4.771-3.851 1.855-.807 3.993-1.175 5.975-.836 1.983.199 3.936 1.09 5.607 2.407 5.833 4.531 9.373 10.01 9.048 17.656l-.1 3.965c2.195-2.917 3.95-4.998 5.565-7.08a23.6 23.6 0 0 1 3.638-3.879c1.303-1.104 2.733-1.77 4.446-2.01 2.124.056 2.86-1.204 3.61-2.747 3.583-7.42 7.18-14.839 10.761-22.102 2.535-5.04 4.928-10.208 7.462-15.249a10.4 10.4 0 0 1 1.77-2.93c.58-.836 1.586-1.374 2.59-1.629 1.006-.255 2.125-.226 2.974.071.835.453 1.67 1.034 2.082 1.897.396.864.665 1.855.495 2.846-.326 1.685-.935 3.37-1.685 5.055A1137 1137 0 0 1 90.96 33.7c13.422 6.71 26.717 13.139 40.876 19.015.595-.977 1.048-1.954 1.487-2.931 2.279-6.173 4.417-12.346 6.697-18.52.467-1.401 1.062-2.661 1.656-3.922.595-.976 1.317-1.812 2.322-2.208s2.138-.51 3.257-.199c1.118.312 2.095 1.048 2.633 2.054a5.52 5.52 0 0 1 .623 3.412 14.8 14.8 0 0 1-.934 3.37C145.004 46.4 140.303 59.03 135.73 71.66c-.156.566-.312 1.26-.623 1.968.269.283.693.722 1.104.878 1.118.594 2.081 1.472 2.634 2.478.538 1.146.793 2.279.481 3.553-.368 3.526-1.317 7.051-2.393 10.421-4.092 10.661-8.325 21.323-12.7 31.828-1.968 4.772-4.205 9.388-6.584 13.862-2.817 5.168-6.485 9.897-10.973 13.748-4.191 3.582-9.486 5.706-15.037 6.272-6.824.963-13.309-.34-19.793-1.628-17.189-3.554-34.052-8.793-50.164-15.716-5.607-2.407-10.62-5.791-14.895-10.152-8.297-8-8.481-17.358-3.285-26.986C6.63 96.31 11.827 91.921 17.986 89.67c.85-.255 1.572-.666 2.435-1.076 0 0 0-.284.298-.553-.977-.453-2.096-.906-3.087-1.359a20.58 20.58 0 0 1-10.944-9.77c-1.487-2.59-2.124-5.436-1.912-8.41.071-2.973 1.275-5.776 2.889-8 2.789-4.176 9.075-6.002 14.144-4.6 1.543.466 3.087 1.217 5.055 1.826h-.142zM128.65 82.788c-3.1-.65-5.918-1.146-8.736-1.783-11.695-2.138-23.234-5.267-34.462-9.232-4.771-1.826-9.387-4.205-13.408-7.419-.694-.58-1.388-1.02-2.365-1.755-3.058 3.468-5.989 7.206-8.495 11.114.552.58 1.246 1.16 1.94 1.6a1162 1162 0 0 0 18.152 10.095c1.118.595 2.236 1.19 3.213 1.925.694.581 1.246 1.303 1.501 2.167.255.85.24 1.84-.07 2.69-.312.85-.75 1.685-1.473 2.223-.722.538-1.572.807-2.577.92-1.274-.028-2.548-.07-3.808-.665-1.968-.765-3.781-1.657-5.593-2.69-5.168-2.96-10.194-5.919-15.362-8.892a30 30 0 0 1-2.237-1.048l-4.517 5.126c1.246 1.019 2.209 2.038 3.327 2.775 4.588 3.228 9.33 6.329 14.074 9.415 1.26.736 2.648 1.628 3.752 2.648.552.439.963.878 1.373 1.586.27.566.538 1.288.51 1.996s-.042 1.416-.34 1.968c-.297.694-.594 1.26-1.175 1.671-.878.821-1.869 1.232-3.143 1.331-1.133-.029-2.251-.34-3.228-1.076-6.683-4.418-13.239-8.836-19.78-13.395-1.246-.877-2.364-1.897-3.469-2.916-3.71.892-6.98 1.67-10.123 2.435-3.993 1.034-7.986 1.926-11.837 3.1-3.001 1.063-5.592 2.974-7.362 5.622 1.26.594 2.237 1.047 3.086 1.359 3.78 1.515 7.717 3.03 11.497 4.403 8.566 3.044 17.132 6.103 25.684 9.147 5.89 2.138 11.794 4.261 17.826 6.258 3.794 1.373 7.744 1.897 11.723 1.43 3.554-.482 7.108-1.09 10.661-1.713 5.395-.708 10.662-1.43 15.986.552.566.014 1.132.17 1.698.184 3.809-5.14 16.524-37.11 17.387-43.467l.142.283zM9.86 114.49c-.03 1.132-.058 2.407.339 3.412.396 1.147 1.076 2.152 1.911 2.874 4.135 4.63 9.289 8.17 15.179 10.293 15.985 6.358 32.267 12.007 49.2 14.839 5.225.835 10.436 1.684 15.703.679 2.987-.637 5.72-1.982 8.169-3.908 2.308-1.925 4.22-4.431 5.565-7.22-2.096-1.048-4.361-1.388-6.782-.878-4.404.594-8.807 1.189-13.366 1.925-5.126 1.006-10.492.581-15.56-.963a247 247 0 0 1-13.48-4.587c-5.89-2.138-11.78-4.403-17.684-6.683-6.456-2.435-13.054-4.573-19.51-7.008-2.52-.921-5.055-1.827-7.575-2.747-.708-.014-1.416-.184-2.124-.198v.141zm69.575-57.442c5.805 5.522 37.28 15.39 45.662 14.47 1.061-2.945 2.137-6.031 3.355-9.26l-41.994-19.61-6.882 14.556-.141-.142zM34.368 80.552c-3.412-5.041-7.405-9.67-11.978-13.621a9.2 9.2 0 0 0-1.954-1.19c-3.78-1.514-6.527.539-5.919 4.531.255 1.133.652 2.138 1.331 3.143 1.36 2.011 3.313 3.625 5.692 4.39 2.803.92 5.62 1.699 8.439 2.336 1.415.184 2.959.354 4.375.396zm8.382-6.443c1.387-4.36 2.067-9.019 2.18-13.535.113-4.517-2.251-6.145-4.899-8.198-.269-.283-.552-.439-.977-.453s-.708-.014-1.132.113c-.283.127-.581.41-.864.68-.156.283-.297.694-.312.977-.325 1.543-.353 2.959-.113 4.53.85 5.409 3.143 10.28 5.975 15.872h.142z"/></svg>
